X: 889
T: Shove The Pig's Foot A Little Closer To The Fire
B: jims roots
M:4/4
L:1/8
R: reel
Q: 1/4=100
K:Gmaj
V:1 
%Z: ceolachan
%S: <a href="http://thesession.org/tunes/7905#setting7905" rel="nofollow">http://thesession.org/tunes/7905#setting7905</a>
|: GA |"G"BcBA GEEF | "C"GAGE "G"DDB,C | DEGA B3 c | "D"B2 A2- A3 B- |
"G"BcBA GDEF | "C"GAGE "G"D3 D | EF G2 "D"B3 G | "G"A2 G2- G2-:|
|: GA |"G"Bd- dB d2 Bd | "C"edBc "G"d4 | Bc d2 g3 d | "D"e2 d2- d3 A |
"G"Bd- dB ddBd | "C"edBc "G"d4 | B3 c "D"BAGB | "G"A2 G2- G2-:|
% abcbook-tune_id 6298c28797b792a2d6706569


% abcbook-boost 0
% abcbook-tablature 
% abcbook-transpose 
% abcbook-lastupdated 1654178440391
% abcbook-soundfonts 
% abcbook-repeats 1


